X:0221
T:The Rakes of Mallo.
M:2/4
L:1/8
Q:1/4=128
I: :: ::
Z:Jack Campin * www.campin.me.uk * 2009
K:G
GBGB      |GB      (d/B/)(A/G/)|FAFA             |FA  d/c/B/A/|
GBGB      |G/A/B/c/ dg         |c/B/A/G/ F/G/A/B/|G2  G2     :|
gf/e/   dc|Bc       d2         |gf/e/    dc      |Bg TA2      |
g(f/e/) dc|BG      Tc2         |BA/G/    F/G/A/B/|G2  G2     :|

